X:112
T:Rowley's Reel. JJo5.112
Q:1/2=80
M:C|
L:1/8
B:J.Johnson Choice Collection Vol 5, 1750
Z:vmp.Mike Hicken 2015 www.village-music-project.org.uk
N:* There is an opening repeat sign here in the original.
R:Reel
K:Dm
Dd2c defd|cBAG FGEC|Dd2c defg|edce d/d/d d2 ?
"*"defg afdf|e>dcg ecge|defg afdf|ecge d/d/d d2|
defg afdf|!trill!e>dcg ecge|defg afgf|ecge d/d/d d2 |]

